img/svg-water.svg

<svg width="12" height="19" viewBox="0 0 12 19" fill="none" xmlns="http://www.w3.org/2000/svg">
<path fill-rule="evenodd" clip-rule="evenodd" d="M11.6784 12.3827C11.6784 15.5955 9.06414 18.2 5.83922 18.2C2.6143 18.2 0 15.5955 0 12.3827C0 9.25798 5.52336 0.676266 5.82628 0.20796C5.83321 0.197281 5.84527 0.197281 5.85216 0.207961C6.15508 0.676266 11.6784 9.25798 11.6784 12.3827ZM4.86584 16.335C1.90274 15.6866 2.40979 12.4043 2.40979 12.4043C2.40979 12.4043 3.21891 14.3857 5.18244 15.0276C7.14593 15.6694 9.5188 14.728 9.5188 14.728C9.5188 14.728 7.82894 16.9833 4.86584 16.335Z" fill="#88A3D4"/>
</svg>

<svg width="12" height="19" fill="none" xmlns="http://www.w3.org/2000/svg"><path fill-rule="evenodd" clip-rule="evenodd" d="M11.678 12.383c0 3.213-2.614 5.817-5.839 5.817C2.614 18.2 0 15.596 0 12.383 0 9.258 5.523.676 5.826.208c.007-.01.02-.01.026 0 .303.468 5.826 9.05 5.826 12.175Zm-6.812 3.952c-2.963-.648-2.456-3.93-2.456-3.93s.809 1.98 2.772 2.623c1.964.641 4.337-.3 4.337-.3s-1.69 2.255-4.653 1.607Z" fill="#88A3D4"/></svg>
